X:13
T: Elmentek a cigányok
O: Magyargyerőmonostor (Kolozs), ?, 1910
M:2/4
L:1/4
Q: "Allegretto" 1/4=116
K:F
d/d/d/d/ | g/c/c | d/B/B/c/ | (B/{A/})G/ G | 
d/d/d/d/ | g/c/c | d/B/B/c/ | (B/{A/})G/ G | 
{G//A//}B2 | c/{B/}A/ B | c/{B/}A/B/c/ | (B/{A/})G/ G | 
{G//A//}B2 | c/{B/}A/ B | c/{B/}A/B/c/ | (B/{A/})G/ G | 

